src/icons/svg/apple.svg

<svg width="24" height="24" fill="none" xmlns="http://www.w3.org/2000/svg"><path d="M15.22 2.08a4.903 4.903 0 0 0-3.32 2.651c-.237.502-.337.908-.367 1.499l-.025.49h.248c.543 0 1.27-.232 1.799-.574.551-.356 1.324-1.193 1.664-1.801.391-.7.682-2.166.458-2.308-.072-.045-.072-.045-.457.043M7.332 6.897c-1.519.288-2.964 1.421-3.673 2.881-.91 1.873-.867 4.261.126 6.982.231.632.823 1.783 1.249 2.425.502.757.797 1.13 1.302 1.649.831.853 1.348 1.134 2.079 1.132.402-.001.653-.057 1.618-.362.996-.314 1.12-.337 1.867-.339.725-.002.802.013 1.9.355 1.144.356 1.462.399 2.012.275.505-.115.849-.301 1.336-.723.725-.629 1.805-2.141 2.328-3.26.277-.592.494-1.149.47-1.21-.01-.028-.135-.116-.275-.195-.598-.334-1.338-.997-1.675-1.501-.425-.635-.652-1.235-.72-1.901-.092-.903.023-1.699.345-2.377.317-.669.794-1.228 1.493-1.748.177-.132.323-.25.324-.263.004-.051-.315-.386-.664-.697-.602-.537-1.267-.878-2.106-1.081-.371-.09-.488-.099-1.288-.098-1.031 0-.999-.006-2.395.441-.95.304-1.012.318-1.369.318-.344 0-.428-.018-1.065-.223-1.448-.467-1.62-.505-2.311-.521-.411-.009-.717.005-.908.041" fill="#373B4D" fill-rule="evenodd"/></svg>

<svg width="24" height="24" viewBox="0 0 24 24" fill="none" xmlns="http://www.w3.org/2000/svg"><path d="M15.220 2.080 C 13.775 2.408,12.526 3.405,11.900 4.731 C 11.663 5.233,11.563 5.639,11.533 6.230 L 11.508 6.720 11.756 6.720 C 12.299 6.720,13.026 6.488,13.555 6.146 C 14.106 5.790,14.879 4.953,15.219 4.345 C 15.610 3.645,15.901 2.179,15.677 2.037 C 15.605 1.992,15.605 1.992,15.220 2.080 M7.332 6.897 C 5.813 7.185,4.368 8.318,3.659 9.778 C 2.749 11.651,2.792 14.039,3.785 16.760 C 4.016 17.392,4.608 18.543,5.034 19.185 C 5.536 19.942,5.831 20.315,6.336 20.834 C 7.167 21.687,7.684 21.968,8.415 21.966 C 8.817 21.965,9.068 21.909,10.033 21.604 C 11.029 21.290,11.153 21.267,11.900 21.265 C 12.625 21.263,12.702 21.278,13.800 21.620 C 14.944 21.976,15.262 22.019,15.812 21.895 C 16.317 21.780,16.661 21.594,17.148 21.172 C 17.873 20.543,18.953 19.031,19.476 17.912 C 19.753 17.320,19.970 16.763,19.946 16.702 C 19.936 16.674,19.811 16.586,19.671 16.507 C 19.073 16.173,18.333 15.510,17.996 15.006 C 17.571 14.371,17.344 13.771,17.276 13.105 C 17.184 12.202,17.299 11.406,17.621 10.728 C 17.938 10.059,18.415 9.500,19.114 8.980 C 19.291 8.848,19.437 8.730,19.438 8.717 C 19.442 8.666,19.123 8.331,18.774 8.020 C 18.172 7.483,17.507 7.142,16.668 6.939 C 16.297 6.849,16.180 6.840,15.380 6.841 C 14.349 6.841,14.381 6.835,12.985 7.282 C 12.035 7.586,11.973 7.600,11.616 7.600 C 11.272 7.600,11.188 7.582,10.551 7.377 C 9.103 6.910,8.931 6.872,8.240 6.856 C 7.829 6.847,7.523 6.861,7.332 6.897 " fill="#373B4D" stroke="none" fill-rule="evenodd"></path></svg>
